X:1
T:Cassel, 77.77.77
T:Cassel, 77.77.77
T:Christen-Schatz (Basl
T:Public Domain Courtesy of the Cyber Hymnal™
C:Christen-Schatz (Basl
Z:Public Domain
Z:Courtesy of the Cyber Hymnal™
%%score ( 1 2 ) ( 3 4 )
L:1/8
Q:1/4=113
M:4/4
K:G
V:1 treble 
V:2 treble 
V:3 bass 
V:4 bass 
V:1
 [DG]2 [DA]2 [DB]2 [Fd]2 | [Ec]2 [DB]2 [DA]4 | [DB]2 [DA]2 [B,G]2 [EA]2 | [DG]2 [DF]2 [DG]4 | %4
 [DF]2 [DG]2 [^CA]2 [DA]2 | [^CG]2 [DF]2 [CE]4 | [DF]2 [DG]2 [DA]2 [DB]2 | [Ec]2 [DB]2 [DA]4 | %8
 [DG]2 [FA]2 [GB]2 [=Fd]2 | [Ec]2 [EB]2 [CA]4 | [GB]2 [FA]2 G2 [EA]2 | [DG]2 [DF]2 [DG]4 |] %12
V:2
 x8 | x8 | x8 | x8 | x8 | x8 | x8 | x8 | x8 | x8 | x4 G2 x2 | x8 |] %12
V:3
 [G,B,]2 [F,A,]2 G,2 [D,A,]2 | [E,G,]2 G,2 [D,F,]4 | G,2 [D,F,]2 [E,G,]2 [C,C]2 | %3
 [D,B,]2 [D,A,]2 [G,,B,]4 | [D,A,]2 [B,,D,]2 [A,,E,]2 [D,F,]2 | [E,G,]2 [D,A,]2 [A,,A,]4 | %6
 [D,A,]2 [B,,G,]2 [D,F,]2 G,2 | [C,G,]2 G,2 [D,F,]4 | [B,D]2 [A,C]2 [G,B,]2 [D,A,]2 | %9
 [E,A,]2 [E,^G,]2 A,4 | [G,D]2 [D,D]2 [E,B,]2 [C,C]2 | [D,B,]2 [D,A,]2 [G,,B,]4 |] %12
V:4
 x4 G,2 x2 | x2 G,2 x4 | G,2 x6 | x8 | x8 | x8 | x6 G,2 | x2 G,2 x4 | x8 | x4 A,4 | x8 | x8 |] %12

